brandFactory_export/1.Light/Subida dinero_1Light.svg

<?xml version="1.0" encoding="UTF-8"?>
<svg width="24px" height="24px" viewBox="0 0 24 24" version="1.1" xmlns="http://www.w3.org/2000/svg" xmlns:xlink="http://www.w3.org/1999/xlink">
    <title>1.Light/Subida dinero_1Light</title>
    <g id="Symbols" stroke="none" stroke-width="1" fill="none" fill-rule="evenodd">
        <g id="1.Light/Subida-dinero_1Light" fill="#5CB615" fill-rule="nonzero">
            <path d="M0.904201681,6.12436975 C0.904201681,5.84201681 1.12941176,5.61344538 1.40840336,5.61344538 L2.12773109,5.61344538 C2.11092437,5.40504202 2.08403361,5.20672269 2.08403361,4.98487395 C2.08403361,4.8907563 2.10084034,4.81344538 2.10420168,4.72268908 L1.40840336,4.72268908 C1.12941176,4.71932773 0.904201681,4.4907563 0.904201681,4.21176471 C0.904201681,3.92941176 1.12941176,3.70084034 1.40840336,3.70084034 L2.20504202,3.70084034 C2.62521008,1.39495798 4.23193277,0.137815126 6.85714286,0.137815126 C7.80168067,0.137815126 8.62521008,0.299159664 9.30420168,0.618487395 C9.55630252,0.739495798 9.66722689,1.04201681 9.54957983,1.29747899 C9.43529412,1.54957983 9.1394958,1.66386555 8.88739496,1.54957983 C8.88403361,1.54957983 8.88403361,1.54621849 8.88067227,1.54621849 C8.33613445,1.2907563 7.65378151,1.15966387 6.85714286,1.15966387 C4.79327731,1.15966387 3.61008403,2.00336134 3.23361345,3.70084034 L6.0907563,3.70084034 C6.3697479,3.70084034 6.59495798,3.92941176 6.59495798,4.21176471 C6.59495798,4.49411765 6.3697479,4.72268908 6.0907563,4.72268908 L3.1092437,4.72268908 C3.10588235,4.81008403 3.09243697,4.8907563 3.09243697,4.98487395 C3.09243697,5.21008403 3.11260504,5.41176471 3.13277311,5.61680672 L6.09411765,5.61680672 C6.37310924,5.61680672 6.59831933,5.84537815 6.59831933,6.12773109 C6.59831933,6.41008403 6.37310924,6.63865546 6.09411765,6.63865546 L3.31764706,6.63865546 C3.77815126,8.09411765 4.94789916,8.80672269 6.85714286,8.80672269 C7.66386555,8.80672269 8.35294118,8.67226891 8.90084034,8.41008403 C9.15294118,8.29243697 9.45210084,8.40336134 9.5697479,8.65546218 C9.6907563,8.91092437 9.57983193,9.21344538 9.32773109,9.33445378 C8.64537815,9.66386555 7.81176471,9.82857143 6.85378151,9.82857143 C4.37647059,9.82857143 2.81680672,8.69915966 2.29243697,6.63865546 L1.40840336,6.63865546 C1.12941176,6.63529412 0.904201681,6.40672269 0.904201681,6.12436975 Z M19.0252101,1.19663866 L15.9731092,4.32268908 L17.2067227,4.33277311 C17.5932773,4.34285714 17.8991597,4.66554622 17.8890756,5.05210084 L17.8890756,5.05546218 L17.892437,8.02689076 C17.892437,8.07058824 17.9260504,8.10756303 17.9697479,8.10756303 L20.0739496,8.10756303 C20.1176471,8.10756303 20.1512605,8.07394958 20.1512605,8.0302521 L20.1478992,5.04201681 C20.1411765,4.66218487 20.4403361,4.34621849 20.8168067,4.33277311 L22.0672297,4.32268908 C22.0705882,4.32268908 19.0252101,1.19663866 19.0252101,1.19663866 L19.0252101,1.19663866 Z M15.2201681,5.33781513 C14.9546218,5.33445378 14.7159664,5.17983193 14.605042,4.93781513 C14.4907563,4.68907563 14.5243697,4.39327731 14.6957983,4.17815126 L18.5344538,0.25210084 C18.605042,0.151260504 18.7663866,0.0605042017 18.9478992,0.0369747899 C19.1798319,0.00672268908 19.4117647,0.100840336 19.5563025,0.28907563 L23.307563,4.14117647 C23.512605,4.39327731 23.5428571,4.69243697 23.4285714,4.93781513 C23.3176471,5.17983193 23.0789916,5.33445378 22.8134454,5.33781513 L21.1563025,5.3512605 L21.1596639,8.02689076 C21.1596639,8.63529412 20.6722689,9.12941176 20.0739496,9.12941176 L17.9731092,9.12941176 C17.3680672,9.12268908 16.8840336,8.63193277 16.887395,8.02689076 L16.8840336,5.3512605 L15.2201681,5.33781513 L15.2201681,5.33781513 Z M21.6907563,22.3394958 C21.9663866,22.2554622 22.6151261,22.0201681 22.6151261,21.6907563 L22.6151261,20.2655462 C22.4134454,20.3731092 22.2016807,20.4605042 21.9865546,20.5277311 C21.2739496,20.7462185 20.3394958,20.8672269 19.3579832,20.8672269 C18.3731092,20.8672269 17.4420168,20.7462185 16.7294118,20.5277311 C16.507563,20.4605042 16.292437,20.3731092 16.087395,20.2689076 L16.087395,21.6907563 C16.087395,22.0201681 16.7361345,22.2554622 17.0117647,22.3428571 C18.2655462,22.7193277 20.4302521,22.7193277 21.6907563,22.3394958 L21.6907563,22.3394958 Z M14.1579832,22.3394958 C14.6554622,22.1882353 14.9613445,21.9630252 15.0789916,21.7882353 L15.0789916,20.2151261 C14.8773109,20.3226891 14.6655462,20.4067227 14.4504202,20.4773109 C13.7378151,20.6957983 12.8033613,20.8168067 11.8218487,20.8168067 C10.8403361,20.8168067 9.90588235,20.6991597 9.19327731,20.4773109 C8.97142857,20.410084 8.75630252,20.3226891 8.5512605,20.2184874 L8.5512605,21.8016807 C8.65546218,21.9663866 8.96134454,22.1815126 9.48571429,22.3394958 C10.7294118,22.7193277 12.907563,22.7193277 14.1579832,22.3394958 Z M6.61848739,22.3394958 C7.11260504,22.1882353 7.41848739,21.9663866 7.5394958,21.7882353 L7.5394958,20.2386555 C7.35462185,20.3327731 7.14621849,20.4168067 6.90756303,20.4907563 C6.19495798,20.7092437 5.2605042,20.8302521 4.2789916,20.8302521 C3.29747899,20.8302521 2.36302521,20.7092437 1.65042017,20.4907563 C1.42857143,20.4235294 1.21344538,20.3361345 1.00840336,20.2319328 L1.00840336,21.8016807 C1.10588235,21.9529412 1.39159664,22.1680672 1.94285714,22.3394958 C3.18991597,22.7226891 5.36806723,22.7226891 6.61848739,22.3394958 Z M1.93277311,18.5411765 C1.49579832,18.6756303 1.19663866,18.8504202 1.07563025,19.0218487 C1.18991597,19.1966387 1.49243697,19.3747899 1.9394958,19.512605 C3.18319328,19.892437 5.37478992,19.892437 6.61512605,19.512605 C7.19327731,19.3344538 7.40168067,19.1495798 7.4789916,19.0352941 C7.3210084,18.7865546 6.84033613,18.6151261 6.60840336,18.5445378 C5.36134454,18.1647059 3.18319328,18.1647059 1.93277311,18.5411765 L1.93277311,18.5411765 Z M9.47226891,15.7042017 C9.02857143,15.8386555 8.72605042,16.0168067 8.61176471,16.1915966 C8.68907563,16.3092437 8.90084034,16.497479 9.48235294,16.6756303 C10.7294118,17.0554622 12.907563,17.0554622 14.1579832,16.6756303 C14.7327731,16.5008403 14.9411765,16.312605 15.0252101,16.194958 C14.8672269,15.9495798 14.3865546,15.7747899 14.1546218,15.7042017 C12.9008403,15.3210084 10.7193277,15.3210084 9.47226891,15.7042017 L9.47226891,15.7042017 Z M17.0117647,12.9109244 C16.4571429,13.0823529 16.2386555,13.2638655 16.1512605,13.3848739 C16.2588235,13.5630252 16.5680672,13.7445378 17.0184874,13.8823529 C18.2621849,14.2621849 20.4504202,14.2621849 21.697479,13.8823529 C22.2722689,13.7042017 22.4806723,13.5193277 22.5613445,13.4016807 C22.4033613,13.1563025 21.9226891,12.9815126 21.6907563,12.9109244 C20.4403361,12.5310924 18.2621849,12.5310924 17.0117647,12.9109244 L17.0117647,12.9109244 Z M16.087395,17.4285714 L16.087395,19.0117647 C16.1915966,19.1764706 16.497479,19.3915966 17.0218487,19.5495798 C18.2655462,19.9294118 20.4537815,19.9294118 21.697479,19.5495798 C22.194958,19.3983193 22.5008403,19.1731092 22.6184874,18.9983193 L22.6184874,17.4252101 C22.4168067,17.5327731 22.205042,17.6201681 21.989916,17.687395 C21.2739496,17.9058824 20.3394958,18.0235294 19.3613445,18.0235294 C18.3831933,18.0235294 17.4487395,17.9058824 16.7327731,17.687395 C16.507563,17.6201681 16.292437,17.5327731 16.087395,17.4285714 L16.087395,17.4285714 Z M16.7260504,14.8605042 C16.5042017,14.7932773 16.292437,14.7058824 16.087395,14.6016807 L16.087395,16.1714286 C16.1848739,16.3226891 16.4672269,16.5411765 17.0184874,16.7092437 C18.2689076,17.0890756 20.4436975,17.0890756 21.697479,16.7092437 C22.1915966,16.5579832 22.497479,16.3361345 22.6151261,16.1613445 L22.6151261,14.6117647 C22.4268908,14.7058824 22.2252101,14.789916 21.9865546,14.8638655 C21.2739496,15.0823529 20.3394958,15.2033613 19.3579832,15.2033613 C18.3731092,15.2 17.4420168,15.0789916 16.7260504,14.8605042 L16.7260504,14.8605042 Z M8.54789916,17.394958 L8.54789916,18.9613445 C8.64537815,19.1159664 8.93109244,19.3310924 9.48235294,19.4991597 C10.7260504,19.8789916 12.9142857,19.8789916 14.1579832,19.4991597 C14.712605,19.3310924 14.9815126,19.0957983 15.0789916,18.9512605 L15.0789916,17.4016807 C14.8773109,17.502521 14.6655462,17.5865546 14.4470588,17.6537815 C13.7310924,17.8722689 12.7966387,17.9932773 11.8184874,17.9932773 C10.8403361,17.9932773 9.9092437,17.8756303 9.18991597,17.6537815 C8.96806723,17.5865546 8.75294118,17.4991597 8.54789916,17.394958 Z M21.9798319,11.9327731 C23.3378151,12.3495798 23.6235294,13.0453782 23.6235294,13.5596639 L23.6235294,21.687395 C23.6235294,22.2016807 23.3378151,22.9008403 21.9798319,23.3176471 C21.2571429,23.5361345 20.3260504,23.6571429 19.3512605,23.6571429 C18.3764706,23.6571429 17.4420168,23.5361345 16.7226891,23.3210084 C16.1882353,23.1563025 15.8218487,22.9478992 15.5731092,22.7260504 C15.2436975,22.9983193 14.8605042,23.2 14.4470588,23.3210084 C13.7277311,23.5394958 12.7966387,23.6605042 11.8184874,23.6605042 C10.8403361,23.6605042 9.9092437,23.5394958 9.18991597,23.3210084 C8.69915966,23.1731092 8.31932773,22.9647059 8.03361345,22.7260504 C7.74453782,22.9714286 7.36806723,23.1831933 6.90756303,23.3210084 C6.19159664,23.5394958 5.25714286,23.6605042 4.2789916,23.6605042 C3.30084034,23.6605042 2.36638655,23.5394958 1.65042017,23.3210084 C0.981512605,23.1159664 0.504201681,22.8134454 0.225210084,22.4470588 C0.0840336134,22.3529412 0,22.1983193 0,22.0302521 L0,19.1932773 C0,19.0722689 0.0168067227,18.9512605 0.0470588235,18.8369748 L0.0504201681,18.8302521 C0.21512605,18.2655462 0.749579832,17.8386555 1.64369748,17.5630252 C3.0789916,17.1260504 5.46890756,17.1260504 6.90084034,17.5630252 C7.15294118,17.6403361 7.35462185,17.7277311 7.5394958,17.8218487 L7.5394958,16.3529412 C7.5394958,16.2285714 7.55630252,16.1109244 7.58991597,15.9932773 C7.7512605,15.4218487 8.28571429,14.9983193 9.18319328,14.7226891 C10.6117647,14.2857143 13.0084034,14.2857143 14.4436975,14.7226891 C14.6621849,14.789916 14.8773109,14.8773109 15.0789916,14.9815126 L15.0789916,13.5596639 C15.0789916,13.4352941 15.0957983,13.3176471 15.1260504,13.2 C15.287395,12.6319328 15.8252101,12.205042 16.7193277,11.9294118 C18.1546218,11.4957983 20.5445378,11.4957983 21.9798319,11.9327731 L21.9798319,11.9327731 Z" id="Subida-dinero_1Light"></path>
        </g>
    </g>
</svg>

<svg width="24" height="24" viewBox="0 0 24 24" xmlns="http://www.w3.org/2000/svg"><path d="M.904 6.124c0-.282.225-.51.504-.51h.72c-.017-.209-.044-.407-.044-.63 0-.093.017-.17.02-.261h-.696a.511.511 0 010-1.022h.797C2.625 1.395 4.232.138 6.857.138c.945 0 1.768.161 2.447.48a.515.515 0 01.246.68c-.115.252-.41.366-.663.252-.003 0-.003-.004-.006-.004-.545-.255-1.227-.386-2.024-.386-2.064 0-3.247.843-3.623 2.54H6.09c.279 0 .504.23.504.512 0 .282-.225.51-.504.51H3.109c-.003.088-.017.169-.017.263 0 .225.02.427.04.632h2.962c.28 0 .504.228.504.51 0 .283-.225.512-.504.512H3.318c.46 1.455 1.63 2.168 3.54 2.168.806 0 1.495-.135 2.043-.397a.504.504 0 01.669.245.511.511 0 01-.242.68c-.683.329-1.516.494-2.474.494-2.478 0-4.037-1.13-4.562-3.19h-.884a.512.512 0 01-.504-.515zm18.121-4.927l-3.052 3.126 1.234.01c.386.01.692.333.682.72v.002l.003 2.972c0 .044.034.08.078.08h2.104a.076.076 0 00.077-.077l-.003-2.988a.697.697 0 01.669-.71l1.25-.01c.004 0-3.042-3.125-3.042-3.125zm-3.805 4.14a.684.684 0 01-.615-.4.732.732 0 01.09-.759l3.84-3.926c.07-.1.231-.191.413-.215a.659.659 0 01.608.252l3.752 3.852c.205.252.235.551.12.797a.684.684 0 01-.615.4l-1.657.013.004 2.676c0 .608-.488 1.102-1.086 1.102h-2.1a1.095 1.095 0 01-1.087-1.102l-.003-2.676-1.664-.013zm6.47 17.002c.276-.084.925-.319.925-.648v-1.425a3.654 3.654 0 01-.628.262c-.713.218-1.648.34-2.629.34-.985 0-1.916-.122-2.629-.34a3.944 3.944 0 01-.642-.26v1.423c0 .33.65.564.925.652 1.254.376 3.418.376 4.679-.004zm-7.532 0c.497-.15.803-.376.921-.55v-1.574a3.941 3.941 0 01-.629.262c-.712.219-1.647.34-2.628.34-.982 0-1.916-.118-2.629-.34a3.944 3.944 0 01-.642-.259v1.584c.104.164.41.38.935.537 1.243.38 3.422.38 4.672 0zm-7.54 0c.495-.15.8-.373.921-.55v-1.55a3.99 3.99 0 01-.631.252c-.713.218-1.647.34-2.629.34s-1.916-.122-2.629-.34a3.944 3.944 0 01-.642-.26v1.57c.098.152.384.367.935.538 1.247.384 3.425.384 4.675 0zm-4.685-3.798c-.437.135-.736.31-.857.48.114.176.416.354.863.492 1.244.38 3.436.38 4.676 0 .578-.179.787-.363.864-.478-.158-.248-.639-.42-.87-.49-1.248-.38-3.426-.38-4.676-.004zm7.54-2.837c-.444.135-.747.313-.861.488.077.117.289.305.87.484 1.247.38 3.426.38 4.676 0 .575-.175.783-.363.867-.481-.158-.245-.638-.42-.87-.49-1.254-.384-3.436-.384-4.683 0zm7.539-2.793c-.555.171-.773.353-.86.474.107.178.416.36.866.497 1.244.38 3.432.38 4.68 0 .574-.178.783-.363.863-.48-.158-.246-.638-.42-.87-.491-1.25-.38-3.429-.38-4.68 0zm-.925 4.518v1.583c.105.164.41.38.935.538 1.244.38 3.432.38 4.675 0 .498-.152.804-.377.921-.552v-1.573a3.654 3.654 0 01-.628.262c-.716.219-1.65.337-2.629.337-.978 0-1.912-.118-2.628-.337a3.861 3.861 0 01-.646-.258zm.64-2.568a3.908 3.908 0 01-.64-.26v1.57c.098.152.38.37.931.538 1.25.38 3.426.38 4.68 0 .494-.151.8-.373.917-.548v-1.55c-.188.095-.39.179-.628.253-.713.218-1.648.34-2.629.34-.985-.004-1.916-.125-2.632-.343zm-8.18 2.534v1.566c.098.155.384.37.935.538 1.244.38 3.432.38 4.676 0 .555-.168.824-.403.921-.548v-1.55c-.202.102-.413.186-.632.253-.716.218-1.65.34-2.629.34-.978 0-1.909-.118-2.628-.34a3.944 3.944 0 01-.642-.259zm13.433-5.462c1.358.417 1.644 1.112 1.644 1.627v8.127c0 .515-.286 1.214-1.644 1.63-.723.22-1.654.34-2.629.34-.975 0-1.909-.12-2.628-.336-.535-.165-.901-.373-1.15-.595-.33.272-.712.474-1.126.595-.72.218-1.65.34-2.629.34-.978 0-1.909-.122-2.628-.34-.49-.148-.87-.356-1.156-.595-.29.245-.666.457-1.126.595-.716.218-1.65.34-2.629.34-.978 0-1.913-.122-2.629-.34-.668-.205-1.146-.508-1.425-.874A.5.5 0 010 22.03v-2.837a1.4 1.4 0 01.047-.356l.003-.007c.165-.564.7-.991 1.594-1.267 1.435-.437 3.825-.437 5.257 0 .252.077.454.165.638.259v-1.47c0-.123.017-.241.05-.359.162-.571.697-.995 1.594-1.27 1.429-.437 3.825-.437 5.26 0 .22.067.434.154.636.259V13.56c0-.125.017-.242.047-.36.161-.568.7-.995 1.593-1.27 1.436-.434 3.826-.434 5.26.003z" fill="#5CB615" fill-rule="nonzero"/></svg>
